TV/Source/Wau HD.svg

<svg height="1.988679mm" viewBox="0 0 5.8593211 1.9886788" width="5.859321mm" xmlns="http://www.w3.org/2000/svg" xmlns:xlink="http://www.w3.org/1999/xlink"><clipPath id="a"><path d="m81.288 412.599h16.61v5.638h-16.61z"/></clipPath><g clip-path="url(#a)" transform="matrix(.35277777 0 0 -.35277777 -28.676599 147.544434)"><g transform="translate(97.8971 418.0482)"><path d="m0 0c0 .103-.085.188-.188.188h-2.091c-.448 0-.979-.171-.979-.929v-.874c0-.104.085-.188.188-.188h2.047c.78 0 1.023.459 1.023.924z" fill="#a7a8aa" fill-rule="evenodd"/></g><g transform="translate(94.2885 417.234)"><path d="m0 0c0-.482.017-2.441-.024-2.934-.072-.864-.646-1.568-1.581-1.68-.426-.051-.841-.018-1.231.173-.536.263-.831.713-.955 1.282-.036.167-.049.342-.05.513-.005.885-.003 1.77-.003 2.655 0 .177.03.207.206.207.23 0 .46.001.691 0 .167-.001.199-.033.199-.204 0-.884.001-1.769 0-2.654 0-.194.041-.378.132-.549.151-.287.388-.435.715-.428.321.006.539.171.678.451.082.167.116.345.116.532-.001.877-.001 1.755-.001 2.632 0 .191.029.22.217.22h.68c.181 0 .211-.032.211-.216" fill="#e3004a"/></g><g transform="translate(82.2841 417.4427)"><path d="m0 0c .122.003.199-.048.247-.164.318-.754.656-1.545.976-2.298.02-.046.036-.078.049-.078.014 0 .035.04.055.087.327.777.668 1.587.994 2.365.032.077.07.142.166.144.101.001.142-.067.175-.147.202-.481.876-2.082 1.011-2.401.009-.023.027-.049.039-.049.009 0 .025.028.036.053.27.635.933 2.187.989 2.33.044.112.123.159.24.158.287-.002.574 0 .861-.001.143 0 .168-.039.109-.169-.386-.849-.773-1.699-1.159-2.548-.302-.664-.605-1.327-.907-1.991-.029-.064-.06-.124-.141-.131-.096-.01-.14.049-.174.128-.192.435-.385.869-.578 1.304-.146.33-.291.66-.438.99-.016.035-.041.057-.057.057-.017-.001-.044-.02-.06-.054-.338-.761-.676-1.523-1.012-2.285-.034-.076-.072-.144-.166-.143-.09.001-.126.07-.158.141-.685 1.503-1.371 3.005-2.056 4.508-.07.154-.047.193.12.193z" fill="#e3004a"/></g><g transform="translate(88.0508 413.5816)"><path d="m0 0c-.063.001-.095-.017-.118-.078-.091-.24-.188-.478-.283-.717-.058-.144-.102-.175-.258-.175h-.849c-.141 0-.171.044-.114.168.68 1.5 1.361 2.999 2.043 4.498.02.045.044.093.078.126.089.085.223.05.281-.073l2.093-4.593c.027-.076.003-.124-.075-.125l-.977.002c-.09.001-.137.067-.168.145-.096.242-.196.483-.288.727-.027.071-.062.098-.14.096z" fill="#e3004a"/></g><g transform="translate(95.134 417.9762)"><path d="m0 0h .281v-.581h.495v.581h.281v-1.48h-.281v.582h-.495v-.582h-.281z" fill="#fff"/></g><g transform="translate(96.8947 416.8135)"><path d="m0 0c .197 0 .327.178.327.423 0 .247-.13.423-.327.423h-.175v-.846zm-.456 1.163h.481c.343 0 .593-.322.593-.74 0-.419-.25-.74-.593-.74h-.481z" fill="#fff"/></g></g></svg>

<?xml version="1.0" encoding="UTF-8" standalone="no"?>
<!-- Created with Inkscape (http://www.inkscape.org/) -->

<svg
   xmlns:dc="http://purl.org/dc/elements/1.1/"
   xmlns:cc="http://creativecommons.org/ns#"
   xmlns:rdf="http://www.w3.org/1999/02/22-rdf-syntax-ns#"
   xmlns:svg="http://www.w3.org/2000/svg"
   xmlns="http://www.w3.org/2000/svg"
   xmlns:sodipodi="http://sodipodi.sourceforge.net/DTD/sodipodi-0.dtd"
   xmlns:inkscape="http://www.inkscape.org/namespaces/inkscape"
   width="5.8593211mm"
   height="1.9886788mm"
   viewBox="0 0 5.8593211 1.9886788"
   version="1.1"
   id="svg41357"
   inkscape:version="0.92.0 r15299"
   sodipodi:docname="Wau HD.svg">
  <defs
     id="defs41351">
    <clipPath
       clipPathUnits="userSpaceOnUse"
       id="clipPath22894">
      <path
         d="m 81.288,412.599 h 16.61 v 5.638 h -16.61 z"
         id="path22892"
         inkscape:connector-curvature="0" />
    </clipPath>
  </defs>
  <sodipodi:namedview
     id="base"
     pagecolor="#ffffff"
     bordercolor="#666666"
     borderopacity="1.0"
     inkscape:pageopacity="0.0"
     inkscape:pageshadow="2"
     inkscape:zoom="31.678384"
     inkscape:cx="8.7081809"
     inkscape:cy="-0.42596057"
     inkscape:document-units="mm"
     inkscape:current-layer="layer1"
     showgrid="false"
     fit-margin-top="0"
     fit-margin-left="0"
     fit-margin-right="0"
     fit-margin-bottom="0"
     inkscape:window-width="1920"
     inkscape:window-height="1017"
     inkscape:window-x="-8"
     inkscape:window-y="-8"
     inkscape:window-maximized="1" />
  <metadata
     id="metadata41354">
    <rdf:RDF>
      <cc:Work
         rdf:about="">
        <dc:format>image/svg+xml</dc:format>
        <dc:type
           rdf:resource="http://purl.org/dc/dcmitype/StillImage" />
        <dc:title></dc:title>
      </cc:Work>
    </rdf:RDF>
  </metadata>
  <g
     inkscape:label="Layer 1"
     inkscape:groupmode="layer"
     id="layer1"
     transform="translate(-84.760815,-97.190186)">
    <g
       transform="matrix(0.35277777,0,0,-0.35277777,56.084216,244.73462)"
       id="g22888">
      <g
         id="g22890"
         clip-path="url(#clipPath22894)">
        <g
           id="g22896"
           transform="translate(97.8971,418.0482)">
          <path
             d="m 0,0 c 0,0.103 -0.085,0.188 -0.188,0.188 h -2.091 c -0.448,0 -0.979,-0.171 -0.979,-0.929 v -0.874 c 0,-0.104 0.085,-0.188 0.188,-0.188 h 2.047 c 0.78,0 1.023,0.459 1.023,0.924 z"
             style="fill:#a7a8aa;fill-opacity:1;fill-rule:evenodd;stroke:none"
             id="path22898"
             inkscape:connector-curvature="0" />
        </g>
        <g
           id="g22900"
           transform="translate(94.2885,417.234)">
          <path
             d="m 0,0 c 0,-0.482 0.017,-2.441 -0.024,-2.934 -0.072,-0.864 -0.646,-1.568 -1.581,-1.68 -0.426,-0.051 -0.841,-0.018 -1.231,0.173 -0.536,0.263 -0.831,0.713 -0.955,1.282 -0.036,0.167 -0.049,0.342 -0.05,0.513 -0.005,0.885 -0.003,1.77 -0.003,2.655 0,0.177 0.03,0.207 0.206,0.207 0.23,0 0.46,0.001 0.691,0 0.167,-0.001 0.199,-0.033 0.199,-0.204 0,-0.884 0.001,-1.769 0,-2.654 0,-0.194 0.041,-0.378 0.132,-0.549 0.151,-0.287 0.388,-0.435 0.715,-0.428 0.321,0.006 0.539,0.171 0.678,0.451 0.082,0.167 0.116,0.345 0.116,0.532 -0.001,0.877 -0.001,1.755 -0.001,2.632 0,0.191 0.029,0.22 0.217,0.22 0.227,0 0.454,0 0.68,0 C -0.03,0.216 0,0.184 0,0"
             style="fill:#e3004a;fill-opacity:1;fill-rule:nonzero;stroke:none"
             id="path22902"
             inkscape:connector-curvature="0" />
        </g>
        <g
           id="g22904"
           transform="translate(82.2841,417.4427)">
          <path
             d="m 0,0 c 0.122,0.003 0.199,-0.048 0.247,-0.164 0.318,-0.754 0.656,-1.545 0.976,-2.298 0.02,-0.046 0.036,-0.078 0.049,-0.078 0.014,0 0.035,0.04 0.055,0.087 0.327,0.777 0.668,1.587 0.994,2.365 0.032,0.077 0.07,0.142 0.166,0.144 0.101,0.001 0.142,-0.067 0.175,-0.147 0.202,-0.481 0.876,-2.082 1.011,-2.401 0.009,-0.023 0.027,-0.049 0.039,-0.049 0.009,0 0.025,0.028 0.036,0.053 0.27,0.635 0.933,2.187 0.989,2.33 C 4.781,-0.046 4.86,0.001 4.977,0 5.264,-0.002 5.551,0 5.838,-0.001 5.981,-0.001 6.006,-0.04 5.947,-0.17 5.561,-1.019 5.174,-1.869 4.788,-2.718 4.486,-3.382 4.183,-4.045 3.881,-4.709 3.852,-4.773 3.821,-4.833 3.74,-4.84 3.644,-4.85 3.6,-4.791 3.566,-4.712 3.374,-4.277 3.181,-3.843 2.988,-3.408 2.842,-3.078 2.697,-2.748 2.55,-2.418 2.534,-2.383 2.509,-2.361 2.493,-2.361 2.476,-2.362 2.449,-2.381 2.433,-2.415 2.095,-3.176 1.757,-3.938 1.421,-4.7 1.387,-4.776 1.349,-4.844 1.255,-4.843 c -0.09,0.001 -0.126,0.07 -0.158,0.141 -0.685,1.503 -1.371,3.005 -2.056,4.508 -0.07,0.154 -0.047,0.193 0.12,0.193 z"
             style="fill:#e3004a;fill-opacity:1;fill-rule:nonzero;stroke:none"
             id="path22906"
             inkscape:connector-curvature="0" />
        </g>
        <g
           id="g22908"
           transform="translate(88.0508,413.5816)">
          <path
             d="M 0,0 C -0.063,0.001 -0.095,-0.017 -0.118,-0.078 -0.209,-0.318 -0.306,-0.556 -0.401,-0.795 -0.459,-0.939 -0.503,-0.97 -0.659,-0.97 h -0.849 c -0.141,0 -0.171,0.044 -0.114,0.168 0.68,1.5 1.361,2.999 2.043,4.498 0.02,0.045 0.044,0.093 0.078,0.126 0.089,0.085 0.223,0.05 0.281,-0.073 L 2.873,-0.844 C 2.9,-0.92 2.876,-0.968 2.798,-0.969 L 1.821,-0.967 C 1.731,-0.966 1.684,-0.9 1.653,-0.822 1.557,-0.58 1.457,-0.339 1.365,-0.095 1.338,-0.024 1.303,0.003 1.225,0.001 Z"
             style="fill:#e3004a;fill-opacity:1;fill-rule:nonzero;stroke:none"
             id="path22910"
             inkscape:connector-curvature="0" />
        </g>
        <g
           id="g22912"
           transform="translate(95.134,417.9762)">
          <path
             d="M 0,0 H 0.281 V -0.581 H 0.776 V 0 H 1.057 V -1.48 H 0.776 v 0.582 H 0.281 V -1.48 H 0 Z"
             style="fill:#ffffff;fill-opacity:1;fill-rule:nonzero;stroke:none"
             id="path22914"
             inkscape:connector-curvature="0" />
        </g>
        <g
           id="g22916"
           transform="translate(96.8947,416.8135)">
          <path
             d="M 0,0 C 0.197,0 0.327,0.178 0.327,0.423 0.327,0.67 0.197,0.846 0,0.846 H -0.175 V 0 Z m -0.456,1.163 h 0.481 c 0.343,0 0.593,-0.322 0.593,-0.74 0,-0.419 -0.25,-0.74 -0.593,-0.74 h -0.481 z"
             style="fill:#ffffff;fill-opacity:1;fill-rule:nonzero;stroke:none"
             id="path22918"
             inkscape:connector-curvature="0" />
        </g>
      </g>
    </g>
  </g>
</svg>
